src/images/icons/expenses/other.svg

<svg width="56" height="56" viewBox="0 0 56 56" fill="none" xmlns="http://www.w3.org/2000/svg">
<path d="M55.9927 39.084C54.3202 25.6665 41.8004 23.6786 38.2667 23.3855V11.1998C38.2667 11.116 38.1491 2.7998 28 2.7998C17.8509 2.7998 17.7333 11.116 17.7333 11.1998V23.3855C14.1996 23.6786 1.68483 25.6665 0.00729167 39.084C0.00729167 39.1027 0 39.1775 0 39.1998V42.9331C0 43.4486 0.417904 43.8665 0.933333 43.8665H5.6V45.7331H2.8C2.28457 45.7331 1.86667 46.151 1.86667 46.6665C1.86667 48.926 3.23203 53.1998 8.4 53.1998C13.568 53.1998 14.9333 48.926 14.9333 46.6665C14.9333 46.151 14.5154 45.7331 14 45.7331H11.2V43.8665H25.2V45.7331H22.4C21.8846 45.7331 21.4667 46.151 21.4667 46.6665C21.4667 48.926 22.832 53.1998 28 53.1998C33.168 53.1998 34.5333 48.926 34.5333 46.6665C34.5333 46.151 34.1154 45.7331 33.6 45.7331H30.8V43.8665H44.8V45.7331H42C41.4846 45.7331 41.0667 46.151 41.0667 46.6665C41.0667 48.926 42.432 53.1998 47.6 53.1998C52.768 53.1998 54.1333 48.926 54.1333 46.6665C54.1333 46.151 53.7154 45.7331 53.2 45.7331H50.4V43.8665H55.0667C55.5821 43.8665 56 43.4486 56 42.9331V39.1998C56 39.1784 56 39.1064 55.9927 39.084ZM19.6 11.1998C19.6 10.9327 19.6934 4.66647 28 4.66647C36.2487 4.66647 36.4 10.9364 36.4 11.1998V23.3331H34.5333V17.7331H32.6667V23.3331H19.6V11.1998ZM10.8268 27.0104C13.3041 25.9226 15.9633 25.3083 18.6667 25.1998H37.3333C40.0367 25.3083 42.6959 25.9226 45.1732 27.0104C49.88 28.9582 53.2223 33.2293 53.9811 38.2665H2.01888C2.77767 33.2293 6.11999 28.9582 10.8268 27.0104ZM8.4 51.3331C6.12591 51.504 4.1166 49.8625 3.83132 47.5998H12.9641C12.6679 49.8548 10.6686 51.4899 8.4 51.3331ZM9.33333 45.7331H7.46667V43.8665H9.33333V45.7331ZM28 51.3331C25.7259 51.504 23.7166 49.8625 23.4313 47.5998H32.5641C32.2679 49.8548 30.2686 51.4899 28 51.3331ZM28.9333 45.7331H27.0667V43.8665H28.9333V45.7331ZM47.6 51.3331C45.3241 51.5068 43.312 49.8643 43.0268 47.5998H52.1641C51.8679 49.8548 49.8686 51.4899 47.6 51.3331ZM48.5333 45.7331H46.6667V43.8665H48.5333V45.7331ZM54.1333 41.9998H1.86667V40.1331H54.1333V41.9998Z" fill="#071F41"/>
<path d="M28 27.0669C25.4229 27.0669 23.3334 29.1564 23.3334 31.7336C23.3334 34.3107 25.4229 36.4002 28 36.4002C30.5772 36.4002 32.6667 34.3107 32.6667 31.7336C32.6635 29.1573 30.5763 27.0701 28 27.0669ZM28 34.5336C26.4538 34.5336 25.2 33.2798 25.2 31.7336C25.2 30.1873 26.4538 28.9336 28 28.9336C29.5463 28.9336 30.8 30.1873 30.8 31.7336C30.8 33.2798 29.5463 34.5336 28 34.5336Z" fill="#071F41"/>
<path d="M29.8666 31.7334C29.8666 32.7642 29.0308 33.6 28 33.6C26.9691 33.6 26.1333 32.7642 26.1333 31.7334C26.1333 30.7025 26.9691 29.8667 28 29.8667C29.0308 29.8667 29.8666 30.7025 29.8666 31.7334Z" fill="#071F41"/>
<path d="M32.6666 14H34.5333V15.8667H32.6666V14Z" fill="#071F41"/>
<path d="M32.6667 11.1999V12.1332H34.5333V11.1999C34.5333 10.7218 34.3465 6.5332 28 6.5332V8.39987C32.3308 8.39987 32.6667 10.5464 32.6667 11.1999Z" fill="#071F41"/>
<path d="M19.6 30.7998H21.4666V32.6665H19.6V30.7998Z" fill="#071F41"/>
<path d="M15.8667 30.7998H17.7334V32.6665H15.8667V30.7998Z" fill="#071F41"/>
<path d="M34.5333 30.7998H36.4V32.6665H34.5333V30.7998Z" fill="#071F41"/>
<path d="M38.2667 30.7998H40.1334V32.6665H38.2667V30.7998Z" fill="#071F41"/>
</svg>

<!-- Generated by IcoMoon.io -->
<svg version="1.1" xmlns="http://www.w3.org/2000/svg" width="56" height="56" viewBox="0 0 56 56">
<title>other</title>
<path d="M55.993 39.084c-1.673-13.418-14.192-15.405-17.726-15.698v-12.186c0-0.084-0.118-8.4-10.267-8.4s-10.267 8.316-10.267 8.4v12.186c-3.534 0.293-16.048 2.281-17.726 15.698 0 0.019-0.007 0.094-0.007 0.116v3.733c0 0.515 0.418 0.933 0.933 0.933h4.667v1.867h-2.8c-0.515 0-0.933 0.418-0.933 0.933 0 2.26 1.365 6.533 6.533 6.533s6.533-4.274 6.533-6.533c0-0.515-0.418-0.933-0.933-0.933h-2.8v-1.867h14v1.867h-2.8c-0.515 0-0.933 0.418-0.933 0.933 0 2.26 1.365 6.533 6.533 6.533s6.533-4.274 6.533-6.533c0-0.515-0.418-0.933-0.933-0.933h-2.8v-1.867h14v1.867h-2.8c-0.515 0-0.933 0.418-0.933 0.933 0 2.26 1.365 6.533 6.533 6.533s6.533-4.274 6.533-6.533c0-0.515-0.418-0.933-0.933-0.933h-2.8v-1.867h4.667c0.515 0 0.933-0.418 0.933-0.933v-3.733c0-0.021 0-0.093-0.007-0.116zM19.6 11.2c0-0.267 0.093-6.533 8.4-6.533 8.249 0 8.4 6.27 8.4 6.533v12.133h-1.867v-5.6h-1.867v5.6h-13.067v-12.133zM10.827 27.010c2.477-1.088 5.137-1.702 7.84-1.811h18.667c2.703 0.108 5.363 0.723 7.84 1.811 4.707 1.948 8.049 6.219 8.808 11.256h-51.962c0.759-5.037 4.101-9.308 8.808-11.256zM8.4 51.333c-2.274 0.171-4.283-1.471-4.569-3.733h9.133c-0.296 2.255-2.296 3.89-4.564 3.733zM9.333 45.733h-1.867v-1.867h1.867v1.867zM28 51.333c-2.274 0.171-4.283-1.471-4.569-3.733h9.133c-0.296 2.255-2.296 3.89-4.564 3.733zM28.933 45.733h-1.867v-1.867h1.867v1.867zM47.6 51.333c-2.276 0.174-4.288-1.469-4.573-3.733h9.137c-0.296 2.255-2.296 3.89-4.564 3.733zM48.533 45.733h-1.867v-1.867h1.867v1.867zM54.133 42h-52.267v-1.867h52.267v1.867z"></path>
<path d="M28 27.067c-2.577 0-4.667 2.090-4.667 4.667s2.089 4.667 4.667 4.667c2.577 0 4.667-2.089 4.667-4.667-0.003-2.576-2.090-4.663-4.667-4.667zM28 34.534c-1.546 0-2.8-1.254-2.8-2.8s1.254-2.8 2.8-2.8c1.546 0 2.8 1.254 2.8 2.8s-1.254 2.8-2.8 2.8z"></path>
<path d="M29.867 31.733c0 1.031-0.836 1.867-1.867 1.867s-1.867-0.836-1.867-1.867c0-1.031 0.836-1.867 1.867-1.867s1.867 0.836 1.867 1.867z"></path>
<path d="M32.667 14h1.867v1.867h-1.867v-1.867z"></path>
<path d="M32.667 11.2v0.933h1.867v-0.933c0-0.478-0.187-4.667-6.533-4.667v1.867c4.331 0 4.667 2.147 4.667 2.8z"></path>
<path d="M19.6 30.8h1.867v1.867h-1.867v-1.867z"></path>
<path d="M15.867 30.8h1.867v1.867h-1.867v-1.867z"></path>
<path d="M34.533 30.8h1.867v1.867h-1.867v-1.867z"></path>
<path d="M38.267 30.8h1.867v1.867h-1.867v-1.867z"></path>
</svg>
